X:1
T:Title
%%score { 1 | 2 }
L:1/8
M:6/8
K:Bb
V:1 treble nm="Grand Piano"
V:2 bass 
V:1
 z3 z2[Q:1/4=84] [DF] | [DF][B,D][CE] [DF][EB][EG] | [DF][B,D][CE] [DF]2 [DF] | ECD EAG | %4
 [DF][B,D][EG] [DF]2 [DF] | [DF][B,D][CE] [DF][EB][EG] | [DF][B,D][CE] [DF]2 [B,D] | %7
[M:13/16] [A,C][CF]GAc3/2[DFB] |[M:5/8] [CFA][A,CF][B,=EG] [A,F]2 |[M:1/8] [A,EF] | %10
[M:3/4] [DB][FB] [EB] [DB]2 F | c[Ac] [Gc] c2 F |[M:13/16] [Fd][Fc][FB][FA]G3/2B | %13
[M:5/8] F[=EG][_EA] [DB]2 |] %14
V:2
 z3 z2 [B,,B,] | [B,,B,][B,,F,][B,,F,] [B,,B,][B,,G,][B,,A,] | %2
 [B,,B,][B,,F,][B,,F,] [B,,B,]2 [B,,B,] | [F,A,C][F,A,][F,B,] [F,A,C][F,CE][F,A,E] | %4
 [B,,B,][B,,F,][B,,B,] [B,,B,]2 [B,,B,] | [B,,B,][B,,F,][B,,E,] [B,,B,][B,,G,][B,,A,] | %6
 [B,,B,][B,,F,][B,,F,] [B,,B,]2 [B,,F,] |[M:13/16] [C,F,][A,,F,][C,=E,C][F,C][F,A,F]3/2B,, | %8
[M:5/8] C,C,C, F,2 |[M:1/8] F, |[M:3/4] [B,,F,][B,,A,] [B,,G,] [B,,F,]2 [D,B,] | %11
 [F,A,F][F,C] [F,B,] [F,A,F]2 [F,A,] |[M:13/16] [B,,B,][C,A,][D,B,][E,B,][E,B,E]3/2[E,G,E] | %13
[M:5/8] [F,B,D][C,C][F,C] [B,,B,]2 |] %14

